X: 36656
T: Sharat And Gyan's
R: slip jig
M: 9/8
K: Bminor
M: 7/8
|:ABB dBeB|efa e2d2|[M:13/28]ABB dcA cAF G2AB|
M:7/8
ABB dBeB|efa b2f2|abf abf2|efd efBc:|
M:1
/8
dcA cAF GGA2|BGE AFD EFAd|ecA dBG A2cd|eff edc B2BB|
dcA cAF GGA2|BGE AFD EFAd|ecA dBG A2F2|[M:13/28]EFA dcB cBA B2BB|
|:[M:7/8]ABB eBfB|cef edcB|[M:9/8]Bce B2d A3|[M:7/8]dc/B/A BAFE|
ABB eBfB|cef edcB|[M:8/8]Bcdc BAFE|DEFA AB~B2:|
|:[M:7/8]baf a2ba|fed e2fe|dBA B2ef|dBA B2AF|
EBF AFBF|ABd edfd|efa bfaf|edc B2BB:|

